X: 1069
T: The Tune of Young Jenny.
%R: march, reel
B: Henry Playford "Apollo's Banquet", London 1687 (5th Edition)
F: https://archive.org/details/apollosbanquetco01rugg
Z: 2017 John Chambers <jc:trillian.mit.edu>
M: C|
L: 1/8
K: Dm
% - - - - - - - - - -
A2 |\
F3ED F2A2 | d4 f4 | (ef)(ed) (cd)(cB) | G4 A4 |\
F2D2 F2A2 | d4 f3g | a2(gf) (ef)(ed) | d4 D2 :|
|: A2 |\
d3e (fe)(fc) | A2c2 c2(BA) | d3d (gf)(ge) | f4 f2f(g/a/) |\
A3G A2(Bc) | c3B A2A2 | d2(ef) (gf)(ed) | d6 |]
% - - - - - - - - - -

%%sep 1 1 500
%%sep 1 1 500

